X: 1
T:East Wood Cottage
M:C
L:1/8
Q:80
C:
S:Reel
K:HP
|: a|
B/2{d}G3/2{dc}d2{g}d/2{e}B3/2{Gdc}d2|
{g}B/2{d}G3/2{dc}d2{g}e3/2f/2{g}e3/2d/2|
{g}B/2{d}G3/2{dc}d2{g}d/2{e}B3/2{Gdc}d2|  !
{g}B/2{d}G3/2{g}d3/2B/2{g}A3/2{d}A/2{e}A/2a3/2:| |:
{BGdG}B2{gf}g2a3/2e/2{gf}g2|
{BGdG}B2{gf}g2a3/2g/2{a}f/2a3/2|  !
{BGdG}B2{gf}g2a3/2e/2{gf}g2|
B/2{d}G3/2{g}d3/2B/2{g}A3/2{d}A/2{e}A/2a3/2:|
